libs/icons/src/svg/speaker.svg

<svg width="16" height="16" viewBox="0 0 16 16" fill="none" xmlns="http://www.w3.org/2000/svg">
<g clip-path="url(#clip0_4_501)">
<path fill-rule="evenodd" clip-rule="evenodd" d="M11.3333 0.130493V13.2028L5.14214 9.33332H3.12807L5.44345 14.4536C5.53481 14.6582 5.77405 14.7497 5.97827 14.6585C6.18236 14.5674 6.27385 14.3293 6.18401 14.1255L4.70597 10.8803L5.91937 10.3276L7.40079 13.5802C7.7923 14.4573 7.39838 15.4848 6.52174 15.8761C5.64517 16.2673 4.61849 15.8742 4.22663 14.9987L4.22589 14.997L1.55538 9.09148C0.637429 8.67014 0 7.7429 0 6.66666C0 5.1938 1.19381 3.99999 2.66667 3.99999H5.14214L11.3333 0.130493ZM10 2.53616L5.52453 5.33332H2.66667C1.93019 5.33332 1.33333 5.93018 1.33333 6.66666C1.33333 7.40313 1.93019 7.99999 2.66667 7.99999H5.52453L10 10.7972V2.53616ZM16 5.99996H13.3333V7.33329H16V5.99996ZM15.2614 3.24401L12.952 4.57735L12.2853 3.42266L14.5947 2.08931L15.2614 3.24401ZM15.2614 10.0893L12.952 8.75598L12.2853 9.91067L14.5947 11.244L15.2614 10.0893Z" fill="#202327"/>
</g>
<defs>
<clipPath id="clip0_4_501">
<rect width="16" height="16" fill="white"/>
</clipPath>
</defs>
</svg>

<svg xmlns="http://www.w3.org/2000/svg" viewBox="0 0 16 17" class="sageicon"><path fill-rule="evenodd" d="M11.333.13v13.073l-6.19-3.87H3.127l2.315 5.12a.405.405 0 0 0 .741-.327L4.706 10.88l1.213-.552 1.482 3.252A1.738 1.738 0 0 1 4.227 15l-.001-.002-2.67-5.906A2.667 2.667 0 0 1 2.665 4h2.476L11.333.13ZM10 2.536 5.525 5.333H2.667a1.333 1.333 0 1 0 0 2.667h2.858L10 10.797v-8.26ZM16 6h-2.667v1.333H16V6Zm-.739-2.756-2.309 1.333-.667-1.154 2.31-1.334.666 1.155Zm0 6.845-2.309-1.333-.667 1.155 2.31 1.333.666-1.155Z"/></svg>
